X:1
T:Britta Polka
T:Britta Polka
T:dedicated to Miss Britta Rydberg
T:Hans Christian Lumbye
C:Hans Christian Lumbye
%%score { 1 | 2 }
L:1/8
M:2/4
K:A
V:1 treble nm="Piano" snm="Pno."
V:2 bass 
V:1
!f! !>![Acea]c/d/ e/c/A/F/ | E[DEG]/[DEG]/ [DEG][DEG] | [CEA] z z2 | z2 z |: E | %5
 [CEA][CEA] [CEA][CEA] | [EA]{/A}G/^^F/ GE | [EGd][EGd] [EGd][EGd] | [EGd]{/d}c/^B/ cA | %9
 [EAe][EAe] [EAe][EAe] | ed/c/ BA/F/ | EA/B/ cB/c/ | B2 A :: (B/A/) | .G.B.B (B/a/) | %15
 .g.B.B (B/g/) | .f.B.B (B/f/) | e^d/c/ B^A/=A/ | .G.B.B (B/a/) | .g.B.B (B/g/) | .f.B.B (B/^d/) |1 %21
 .eB/c/ B :|2 .e.^D/.E/ .^E/.F/.^^F/.G/ ||!ff! [CEA][CEA] [CEA][CEA] | [EA]{/A}G/^^F/ GE | %25
 [EGd][EGd] [EGd][EGd] | [EGd]{/d}c/^B/ cA | [EAe][EAe] [EAe][EAe] | ed/c/ BA/F/ | EA/B/ cB/c/ | %30
 B2 A z |:[K:D]!mf! .[Ff]2 .[Aa]2 | .[dd'].a .[dd'].a | .b2 .[dd']2 | [ff']4 | .[aa']2 .[ee']2 | %36
 .[ff'].d' .[ff'].d' | [ff']2 [ee']>[dd'] | [cc'][Bb] [Aa][Gg] | .[Ff]2 .[Aa]2 | %40
 .[dd'].a .[dd'].a | .b2 .[dd']2 | [ff']4 | [ff']2 b>b | [aa'][gg'] [ff'][ee'] | %45
 [dd']a [ff'][ee'] |{/[ff']} ([ee']2 [dd']) z |1!ff! .d/.c/.B/.c/ .d.D | fD A z | %49
 .d/.c/.B/.c/ .d.D | fD A z | .g/.f/.e/.f/ .g.e | .g/.f/.e/.f/ .g.e | .g/.f/.e/.d/ .c/.B/.A/.^G/ | %54
 .B/.A/.G/.E/ .C z :|2[K:A]!ff! [Acea]c/d/ e/c/A/F/ || E[DEG]/[DEG]/ [DEG][DEG] | [CEA] z z2 | %58
 z2 z E | [CEA][CEA] [CEA][CEA] | [EA]{/A}G/^^F/ GE | [EGd][EGd] [EGd][EGd] | [EGd]{/d}c/^B/ cA | %63
 [EAe][EAe] [EAe][EAe] | ed/c/ BA/F/ | EA/B/ cB/c/ | B2 A z |!p! Ac/d/ ee/f/ | (e2 d) z | %69
 GB/c/ dd/e/ | (d2 c) z |!f! !>!.[Aa].a/.g/ .f/.e/.d/.c/ | .B.A .G.F | .Ef/e/ c/e/A/c/ | %74
 E[EG]/[EG]/ [EG][EG] | [EA] z [CEc] z | !fermata![CEA]4 |] %77
V:2
 [A,,C,E,A,] z z2 | z [E,B,]/[E,B,]/ [E,B,][E,B,] | A,,[C,E,A,] A,,[C,E,A,] | A,,[C,E,A,] A,, |: %4
 z | A,,[C,E,A,] A,,[C,E,A,] | E,[B,D] E,[B,D] | E,[B,D] E,[B,D] | A,[CE] A,[CE] | %9
 C,[E,A,] C,[E,A,] | D,[F,B,] ^D,[A,B,] | E,[A,C] E,[G,D] | [E,G,D]2 [A,C] :: z | %14
 E,[G,B,] [G,B,][G,B,] | E,[G,B,] [G,B,][G,B,] | ^D,[A,B,] [A,B,][A,B,] | [B,,A,B,]2 [^D,A,B,]2 | %18
 E,[G,B,] [G,B,][G,B,] | E,[G,B,] [G,B,][G,B,] | ^D,[A,B,] B,,[A,B,] |1 [E,G,B,] z z :|2 %22
 [E,G,B,] z z2 || A,,[C,E,A,] A,,[C,E,A,] | E,[B,D] E,[B,D] | E,[B,D] E,[B,D] | A,[CE] A,[CE] | %27
 C,[E,A,] C,[E,A,] | D,[F,B,] ^D,[A,B,] | E,[A,C] E,[G,D] | [E,G,D]2 [A,C] z |: %31
[K:D] D,[F,A,D] D,[F,A,D] | D,[F,A,D] D,[F,A,D] | D,[G,B,D] D,[G,B,D] | D,[F,A,D] D,[F,A,D] | %35
 A,[CEG] A,[CEG] |[K:treble] D[FA] D[FA] | B,[E^G] [EG][EG] | [A,EG] z z2 | %39
[K:bass] D,[F,A,D] D,[F,A,D] | D,[F,A,D] D,[F,A,D] | D,[G,B,D] D,[G,B,D] | D,[F,A,D] D,[F,A,D] | %43
 B,[^DFA] B,[DFA] | E[GB] G,[B,E] | A,[DF] A,[CG] | ([A,CG]2 [DF]) z |1 [G,B,D] z z [G,B,] | %48
 [D,F,A,D] z z2 | [G,B,D] z z [G,B,] | [D,F,A,D] z z2 | A,[CEG] ^A,[CEG] | B,[EG] =C[EG] | %53
 [A,CEG] z z2 |[K:bass] z2 z [A,,A,] :|2[K:A] [A,,C,E,A,] z z2 || z [E,B,]/[E,B,]/ [E,B,][E,B,] | %57
 A,,[C,E,A,] A,,[C,E,A,] | A,,[C,E,A,] A,, z | A,,[C,E,A,] A,,[C,E,A,] | E,[B,D] E,[B,D] | %61
 E,[B,D] E,[B,D] | A,[CE] A,[CE] | C,[E,A,] C,[E,A,] | D,[F,B,] ^D,[A,B,] | E,[A,C] E,[G,D] | %66
 [E,G,D]2 [A,C] z | A,[CE=G] A,[CEG] | A,[DF] [DF][DF] | A,[DG] A,[DG] | A,[CE] [CE][CE] | %71
 [A,CE]2 z2 | z [^D,F,A,=C] [D,F,A,C][D,F,A,C] | [E,A,C] z z2 | z [E,B,D]/[E,B,D]/ [E,B,D][E,B,D] | %75
 [A,C] z [A,,E,A,] z | !fermata![A,,E,A,]4 |] %77

